X:1
T:Contemplation (Gore-Ouseley), CM
T:Contemplation (Gore-Ouseley), CM
T:Frederick Arthur Gore-Ouseley (1825-1889)
T:Public Domain Courtesy of the Cyber Hymnal™
C:Frederick Arthur Gore-Ouseley (1825-1889)
Z:Public Domain
Z:Courtesy of the Cyber Hymnal™
%%score ( 1 2 ) ( 3 4 )
L:1/8
Q:1/4=125
M:3/2
K:E
V:1 treble 
V:2 treble 
V:3 bass 
V:4 bass 
V:1
 G2 | [FB]4 [DF]2 | [EG]4 [EB]2 | (A2 G2) [DF]2 | E4 [EG]2 | [Ec]4 [EB]2 | [EG]4 [EA]2 | F6 | %8
 [DF]4 [DG]2 | (A2 c2) [EB]2 | [EG]4 [DA]2 | (B2 c2) [G=d]2 | [Ac]4 [Fd]2 | (e2 B2) [EA]2 | %14
 (G3 A) [DF]2 | (z2 C2 A,2 | [B,E]8) |] %17
V:2
 G2 | x6 | x6 | E4 x2 | E6 | x6 | x6 | E2 D2 C2 | x6 | E4 x2 | x6 | E4 x2 | x6 | E4 x2 | E4 x2 | %15
 E6 | x8 |] %17
V:3
 [E,B,]2 | [D,B,]4 [B,,B,]2 | [E,B,]4 [G,,B,]2 | [A,,C]2 [B,,B,]2 [^B,,A,]2 | [C,G,]4 C2 | %5
 [A,C]4 [G,E]2 | [E,B,]4 [A,,C]2 | ([B,,F,]6 | [B,,B,]4) [B,,B,]2 | [C,A,]4 [D,F,]2 | %10
 [E,B,]4 [F,B,]2 | [G,B,]4 [E,B,]2 | [A,C]4 [A,B,]2 | ([G,B,]2 [E,G,]2) [C,A,]2 | %14
 [B,,B,]4 [B,,A,]2 | G,2 A,2 F,2 | [E,G,]8 |] %17
V:4
 x2 | x6 | x6 | x6 | x4 C2 | x6 | x6 | x6 | x6 | x6 | x6 | x6 | x6 | x6 | x6 | E,6 | x8 |] %17

